X:1
T:Title
%%score ( 1 2 ) { 3 | ( 4 5 ) }
L:1/8
M:6/4
K:C
V:1 treble nm="Grand Piano, Staff 1"
V:2 treble 
V:3 bass nm="Choir Pad, Tallis’ Lamentation, LMD"
V:4 bass 
V:5 bass 
V:1
 [A,D]2 [DF]4 [EG]2 [DF]4 | z2 F2 E2- E2 z2 z2 | [DF]2 [FA]4 [FA]2 [EG]4 | z2 G2 E2- E2 z2 z2 | %4
w: By~Melody~from~Day’s~Psalter,~1562 * * *||||
 [DF]2 A3 G F2 c3 _B | z2 _B2 G2- G2 z2 z2 | [FA]2 [FA]4 [DG]2 [EG]4 | z2 G2 E2- E2 z2 z2 | %8
w: ||||
 [DF]2 A2 B2 [Gc]2 [Ac]4 | z4 B2- B2 z2 z2 | [Ec]2 [GB]4 A2 [Bd]4 | z4 B2- B2 z2 z2 | %12
w: ||||
 [FA]2 [EA]4 [EG]2 [Cc]4 | [Ac]2 [Gc]2 [FA]2- [FA]2 [EA]4 | [EG]2 [G_B]4 [FA]2 [EG]4 | %15
w: |||
 z2 G2 E2- E2 z2 z2 | z12 |] %17
w: ||
V:2
 x12 | [CE]2 D4 ^C2 D4 | x12 | [DF]2 D4 ^C2 D4 | z2 F4 z2 G4 | [FA]2 F4 E2 F4 | x12 | %7
 [DF]2 D4 ^C2 D4 | z2 F4 z6 | [Ad]2 .A4 ^G2 A4 | x12 | [Ac]2 .A4 ^G2 A4 | x12 | x12 | x12 | %15
 [DF]2 D4 ^C2 D4- | D6 z6 |] %17
V:3
 F,2 A,4 C2 A,4 | A,2 A,4 z2 F,4 | A,2[K:treble] D4 C2 C4 | A,2 B,2[K:bass] A,2- A,2 F,4 | %4
 A,2 D4[K:treble] D2 E4 | C2 D2 C2- C2 A,4 | D2 D4[K:bass] B,2 C3 _B, | A,2 B,2 A,2- A,2 F,4 | %8
 A,2[K:treble] D4 E2 F4 | F2 D2 B,2- B,2 C4 | E2 E4 C2 G3 F | E2 D2[K:bass] B,2- B,2 C4 | %12
 A,2 C4 B,2 A,3 B, | CD E2 D2- D2 ^C4 | C2 D4 C2 C3[K:bass] _B, | A,2 B,2 A,2- A,2 F,4- | F,6 z6 |] %17
V:4
 D,2 D,4 C,2 D,4 | A,,2 .D,4 A,2 D,4 | D,2 D,4 F,2 C,4 | D,2 G,,2 A,,2- A,,2 D,4 | %4
 D,2 D,4 D,2 C,4 | F,2 _B,,2 C,2- C,2 F,,4 | D,2 D,4 G,,2 C,4 | D,2 G,,2 A,,2- A,,2 D,4 | %8
 D,2 D,4 C,2 F,4 | D,2 F,2 E,2- E,2 A,,4 | A,2 E,4 F,2 G,4 | A,2 F,2 E,2- E,2 A,,4 | %12
 D,2 A,,4 E,2 F,4 | F,2 C,2 D,2- D,2 A,,4 | C,2 G,,4 A,,2 C,4 | D,2 G,,2 A,,2- A,,2 D,4- | %16
 D,6 z6 |] %17
V:5
 x12 | z4 A,,2- A,,2 z2 z2 | x12 | x12 | x12 | x12 | x12 | x12 | x12 | x12 | x12 | x12 | x12 | %13
 x12 | x12 | x12 | x12 |] %17

